X:550
T:The King's Crown
C:Jill Lawrence, 1973.  Chords by Colin Hume, 2022.
L:1/4
M:2/2
R:Reel
S:Colin Hume's website,  colinhume.com  - chords can also be printed below the stave.
Q:1/2=112
%%MIDI ratio 3 1
K:G
P:A
|: D | "G"G/A/B "Em"dc | "Am"x2 "D7"x2 & cA2D | "Em"G/A/B "Am"c/B/A/G/ | "D7"F3 F |\
"G"GA Bd | "C"e/d/c/B/ "D"AA | "Em"BA "A7"A/B/^c | "D"d3 :|
P:B
|: d | "C"e>f ge | "Am"e/d/c/B/ "D"A>A | "G"cB "Em"B/A/G | "C"x2 "D7"x2 & E3 F |\
"G"G>A "G7"Bd | "C"e/d/c/B/ "D"AD | "C"E/F/G "D7"GF | "G"G3 :|

